packages/foundations/assets/icons/functional/images/business & payment/gift.svg

<svg xmlns="http://www.w3.org/2000/svg" width="32" height="32" fill="none"><path fill="#1A1C1F" fill-rule="evenodd" d="M18.987 3.039c-1.142.149-2.321.899-2.867 1.823-.049.083-.103.151-.12.151s-.075-.075-.13-.168c-.174-.294-.83-.942-1.175-1.16-.745-.47-1.523-.677-2.371-.63-.63.035-1.025.138-1.577.409-1.913.94-2.752 3.285-1.867 5.218.073.16.133.3.133.311s-.991.02-2.202.02c-1.796 0-2.26.015-2.52.081-1.056.27-1.858 1.051-2.193 2.135-.093.302-.098.692-.098 7.784v7.467l.146.431a3.03 3.03 0 0 0 2.259 2.022c.554.118 22.636.118 23.19 0a3.03 3.03 0 0 0 2.259-2.022L30 26.48v-7.467c0-7.092-.005-7.482-.098-7.784-.335-1.084-1.137-1.865-2.193-2.135-.26-.066-.724-.081-2.526-.081-1.746 0-2.202-.014-2.179-.066l.192-.448c.244-.568.354-1.305.282-1.887-.153-1.238-.802-2.307-1.798-2.96-.437-.286-1.141-.541-1.681-.609-.488-.061-.572-.062-1.012-.004m-5.674 2.162c.593.29 1.081.947 1.167 1.569.043.315-.042.796-.197 1.12-.064.134-.254.379-.422.545-.404.397-.768.543-1.354.543-.555 0-.937-.145-1.332-.506-1.182-1.08-.705-2.993.852-3.411.088-.024.343-.036.567-.028.32.012.475.048.719.168m7.039-.001c.402.197.761.557.957.961.137.283.155.377.156.827.002.467-.012.536-.173.862-.219.444-.639.842-1.066 1.009-.658.256-1.494.12-2.001-.327-.897-.789-.954-2.114-.127-2.941.426-.427.842-.581 1.508-.559.349.012.492.044.746.168m-5.365 7.787v2H4l.001-1.587c.001-1.424.011-1.609.099-1.802.113-.248.377-.491.584-.536.079-.017.167-.039.196-.049s2.315-.02 5.08-.022l5.027-.004zm12.453-1.885q.329.181.477.537c.069.163.083.472.083 1.773v1.575H17.013v-4.003l5.134.015c4.659.013 5.148.022 5.293.103M14.987 22v4.987H9.884c-5.092 0-5.104-.001-5.337-.113a1.03 1.03 0 0 1-.377-.33l-.143-.216-.015-4.657-.014-4.658h10.989zm13.001-.329-.015 4.657-.143.216c-.086.13-.236.261-.377.33-.233.112-.245.113-5.337.113h-5.103v-9.974h10.989zm-21.401.418c-.151.083-.399.319-.467.443-.261.482-.039 1.139.46 1.366.206.093.397.1 2.913.1 2.5 0 2.709-.007 2.909-.098.726-.33.804-1.298.138-1.721l-.241-.152-2.803.001c-1.941.001-2.835.02-2.909.061"/></svg>

<svg width="32" height="32" viewBox="0 0 32 32" fill="none" xmlns="http://www.w3.org/2000/svg"><path d="M18.987 3.039 C 17.845 3.188,16.666 3.938,16.120 4.862 C 16.071 4.945,16.017 5.013,16.000 5.013 C 15.983 5.013,15.925 4.938,15.870 4.845 C 15.696 4.551,15.040 3.903,14.695 3.685 C 13.950 3.215,13.172 3.008,12.324 3.055 C 11.694 3.090,11.299 3.193,10.747 3.464 C 8.834 4.404,7.995 6.749,8.880 8.682 C 8.953 8.842,9.013 8.982,9.013 8.993 C 9.013 9.004,8.022 9.013,6.811 9.013 C 5.015 9.013,4.551 9.028,4.291 9.094 C 3.235 9.364,2.433 10.145,2.098 11.229 C 2.005 11.531,2.000 11.921,2.000 19.013 L 2.000 26.480 2.146 26.911 C 2.500 27.956,3.340 28.708,4.405 28.933 C 4.959 29.051,27.041 29.051,27.595 28.933 C 28.660 28.708,29.500 27.956,29.854 26.911 L 30.000 26.480 30.000 19.013 C 30.000 11.921,29.995 11.531,29.902 11.229 C 29.567 10.145,28.765 9.364,27.709 9.094 C 27.449 9.028,26.985 9.013,25.183 9.013 C 23.437 9.013,22.981 8.999,23.004 8.947 C 23.020 8.910,23.106 8.709,23.196 8.499 C 23.440 7.931,23.550 7.194,23.478 6.612 C 23.325 5.374,22.676 4.305,21.680 3.652 C 21.243 3.366,20.539 3.111,19.999 3.043 C 19.511 2.982,19.427 2.981,18.987 3.039 M13.313 5.201 C 13.906 5.491,14.394 6.148,14.480 6.770 C 14.523 7.085,14.438 7.566,14.283 7.890 C 14.219 8.024,14.029 8.269,13.861 8.435 C 13.457 8.832,13.093 8.978,12.507 8.978 C 11.952 8.978,11.570 8.833,11.175 8.472 C 9.993 7.392,10.470 5.479,12.027 5.061 C 12.115 5.037,12.370 5.025,12.594 5.033 C 12.914 5.045,13.069 5.081,13.313 5.201 M20.352 5.200 C 20.754 5.397,21.113 5.757,21.309 6.161 C 21.446 6.444,21.464 6.538,21.465 6.988 C 21.467 7.455,21.453 7.524,21.292 7.850 C 21.073 8.294,20.653 8.692,20.226 8.859 C 19.568 9.115,18.732 8.979,18.225 8.532 C 17.328 7.743,17.271 6.418,18.098 5.591 C 18.524 5.164,18.940 5.010,19.606 5.032 C 19.955 5.044,20.098 5.076,20.352 5.200 M14.987 12.987 L 14.987 14.987 9.493 14.987 L 4.000 14.987 4.001 13.400 C 4.002 11.976,4.012 11.791,4.100 11.598 C 4.213 11.350,4.477 11.107,4.684 11.062 C 4.763 11.045,4.851 11.023,4.880 11.013 C 4.909 11.003,7.195 10.993,9.960 10.991 L 14.987 10.987 14.987 12.987 M27.440 11.102 C 27.658 11.222,27.819 11.403,27.917 11.639 C 27.986 11.802,28.000 12.111,28.000 13.412 L 28.000 14.987 22.507 14.987 L 17.013 14.987 17.013 12.985 L 17.013 10.984 22.147 10.999 C 26.806 11.012,27.295 11.021,27.440 11.102 M14.987 22.000 L 14.987 26.987 9.884 26.987 C 4.792 26.987,4.780 26.986,4.547 26.874 C 4.406 26.805,4.256 26.674,4.170 26.544 L 4.027 26.328 4.012 21.671 L 3.998 17.013 9.492 17.013 L 14.987 17.013 14.987 22.000 M27.988 21.671 L 27.973 26.328 27.830 26.544 C 27.744 26.674,27.594 26.805,27.453 26.874 C 27.220 26.986,27.208 26.987,22.116 26.987 L 17.013 26.987 17.013 22.000 L 17.013 17.013 22.508 17.013 L 28.002 17.013 27.988 21.671 M6.587 22.089 C 6.436 22.172,6.188 22.408,6.120 22.532 C 5.859 23.014,6.081 23.671,6.580 23.898 C 6.786 23.991,6.977 23.998,9.493 23.998 C 11.993 23.998,12.202 23.991,12.402 23.900 C 13.128 23.570,13.206 22.602,12.540 22.179 L 12.299 22.027 9.496 22.028 C 7.555 22.029,6.661 22.048,6.587 22.089 " fill="#1A1C1F" stroke="none" fill-rule="evenodd"></path></svg>
